!!!!SEGMENT: pl-wtm--r-325-m--002_moniuszko-stanislaw--kontredanse-na-4-rece.krn
!!!cenid: 18xx:3028
!!!COM: Moniuszko, Stanisław
!!!COM-rismid: pe30008351
!!!CDT: 1819/05/05-1872/06/04
!!!CNT: Polish
!!!GTL: Kontredanse na 4 ręce
!!!OTL: Fig. 2
!!!PDT:
!!!AGN: Secular
!!!SMS-siglum: PL-Wtm
!!!SMS-shelfmark: R 325/M
!!!SMS-shelfwork: 002 G
!!!SMS-variant:
!!!SMS-altvar:
!!!NIFC-rismid: 1001094317
!!!URL-scan: http://repozytorium.nifc.pl/skany/pl-wtm-nut--r325m
!!!ONB-nifc: UWAGA: w zbiorze 6 kontredansów, numeracja plików zgodna ze źródłową
**kern	**kern	**dynam	**kern	**fing	**kern	**dynam
*group1	*group1	*	*group1	*	*group1	*
*part2	*part2	*part2	*part1	*part1	*part1	*part1
*staff4	*staff3	*staff3	*staff2	*staff2	*staff1	*staff1
*Ipiano	*Ipiano	*	*Ipiano	*	*Ipiano	*
*I"[Piano]	*I"[Piano]	*	*I"[Piano]	*	*I"[Piano]	*
*clefF4	*clefF4	*	*clefG2	*	*clefG2	*
*k[b-]	*k[b-]	*	*k[b-]	*	*k[b-]	*
*F:	*F:	*	*F:	*	*F:	*
*M2/4	*M2/4	*	*M2/4	*	*M2/4	*
=1	=1	=1	=1	=1	=1	=1
*all\right	*all\right	*	*all\right	*	*all\right	*
!LO:TX:t=P:problem:all\right:global	!LO:TX:t=P:problem:all\right:global	!	!LO:TX:t=P:problem:all\right:global	!	!LO:TX:t=P:problem:all\right:global	!
!	!	!	!	!	!LO:TX:b:t=scherzando.	!
!	!	!LO:DY:rj	!	!	!LO:TX:a:t=Fig&colon; 2.:color=blue	!LO:DY:rj
8BB-/	8r	p	8f'</L	.	8ff'\L	p
8r	8F\ 8B- 8d	.	16f/L	.	16ff\L	.
.	.	.	16g/JJ	.	16gg\JJ	.
!	!	!	!	!	!LO:TX:t=P:problem:all\left:global	!
!	!	!	!	!	!LO:TX:a:t==a:color=red	!
8FF/	8r	.	8a/L	.	8aa'>\L	.
8r	8F\ 8A 8c	.	(<16a/L	.	(>16aa\L	.
.	.	.	16cc/JJ)	.	16ccc\JJ)	.
=2	=2	=2	=2	=2	=2	=2
*rep	*rep	*	*	*	*	*
!`	!	!	!	!	!LO:TX:t=P:problem:all\right:global	!
8BB-/	8r	.	8f/L	.	8ff'>\L	.
8r	8F\ 8B- 8d	.	16f/L	.	16ff\L	.
.	.	.	16g/JJ	.	16gg\JJ	.
8FF/	8r	.	8a/	.	8aa\L	.
8r	8F\ 8A 8c	.	(<16a/LL	.	(>16aa\L	.
.	.	.	16bn/JJ	.	16bbn\JJ	.
*Xrep	*Xrep	*	*	*	*	*
=3	=3	=3	=3	=3	=3	=3
8GG/	8r	.	8cc'>\)	.	8ccc'>\L)	.
8r	8E\ 8G 8c	.	16g/LL	.	16gg\L	.
.	.	.	16cc/JJ	.	16ccc\JJ	.
8GG/	8r	.	8ee\L	.	8eee\L	.
!	!	!	!LO:TUP:a:problem:klamra łukowa	!	!LO:TUP:a:problem:klamra łukowa	!
8r	8G\ 8Bn 8f	.	24dd\L	.	24ddd\L	.
.	.	.	24ee\	.	24eee\	.
.	.	.	24dd\JJ	.	24ddd\JJ	.
=4	=4	=4	=4	=4	=4	=4
8C/	8r	.	4.cc\	.	4.ccc\	.
8r	8G'>\L 8c 8e	.	.	.	.	.
8CC/ 8C	8c'>\J	.	.	.	.	.
!	!	!	!	!	!	!LO:DY:rj
8r	8r	.	16cc/LL	.	16ccc\LL	f
.	.	.	16a/JJ	.	16aa\JJ	.
=5	=5	=5	=5	=5	=5	=5
!	!	!	!	!	!LO:TX:t=P:problem:all\left:global	!
!	!	!LO:DY:rj	!	!	!LO:TX:a:t=X=:color=red	!
8FFF/L 8FF	8F\L 8A 8c	ff	8f^</ 8a 8cc	.	8ff^>\L 8aa 8ccc 8fff	.
8BBB-/ 8BB-	8F\ 8B-	.	(>16cc\LL 16ee	.	(>16ccc\L 16eee	.
.	.	.	16b-\JJ 16dd	.	16bb-\JJ 16ddd	.
8FFF/J 8FF	8F\J 8A 8c	.	8a/) 8cc	.	8aa\L) 8ccc	.
8r	8r	.	16a/LL	.	16aa\L	.
.	.	.	16cc/JJ	.	16ccc\JJ	.
!!LO:LB:g=original
=6	=6	=6	=6	=6	=6	=6
*rep	*rep	*	*	*	*	*
8FFF/L 8FF	8F\L 8A 8c	.	8f/ 8a 8cc	.	8ff^>\L 8aa 8ccc 8fff	.
8BBB-/ 8BB-	8F\ 8B-	.	16cc\LL 16ee	.	(>16ccc\L 16eee	.
.	.	.	16b-\JJ 16dd	.	16bb-\JJ 16ddd	.
8FFF/J 8FF	8F\J 8A 8c	.	8a\L 8cc	.	8aa\L) 8ccc	.
8r	8r	.	16g\L 16b-	.	16gg\L 16bb-	.
.	.	.	16a\JJ 16cc	.	16aa\JJ 16ccc	.
*Xrep	*Xrep	*	*	*	*	*
=7	=7	=7	=7	=7	=7	=7
!	!	!	!	!	!LO:TX:t=P:problem:all\right:global	!
8BBB-/L 8BB-	8B-^>\L	.	(>8b-^>\L 8dd	.	(>8bb-^>\L 8ddd	.
*Xtuplet	*	*	*	*	*	*
!	!LO:TUP:a	!	!	!	!LO:TX:t=P:problem:all\left:global	!
(<24GG/L	(>24G^>\L	.	16a\L 16cc	.	16aa\L 16ccc	.
24AA/	24A\	.	.	.	.	.
.	.	.	16g\JJ 16b-	.	16gg\JJ 16bb-	.
24BB-/JJ	24B-\JJ	.	.	.	.	.
*tuplet	*	*	*	*	*	*
8C/L)	8c\L)	.	8f/L) 8a 8cc	.	8ff'>\L) 8aa	.
8CC/J 8C	8G\J 8B- 8c	.	8e/J 8g 8b- 8cc	.	8ee'>\J 8gg	.
=8	=8	=8	=8	=8	=8	=8
!	!	!	!	!	!LO:TX:t=P:problem:all\right:global	!
!	!LO:TX:t=P:problem:all\left:global	!	!	!	!LO:TX:b:t==B:color=red	!
4FF/	4A\ 4c	.	4f/ 4b- 4cc	.	4ff\	.
!	!	!LO:DY:rj	!	!	!	!
8FFF/ 8FF	8C\ 8F 8A 8c	sf	8f/ 8a 8cc	.	8aa\ 8ccc 8fff	sf
!	!	!	!	!	!LO:TX:a:t==Z:color=red	!
8r	8r	.	8r	.	8r	.
=9||	=9||	=9||	=9||	=9||	=9||	=9||
!	!	!	!	!	!	!LO:DY:rj
8BBB-/ 8BB-	8r	p	(<8f^</L	.	(>8ff^>\L	p
!	!LO:TX:t=P:problem:all\right:global	!	!	!	!	!
8r	(>8F\L 8B- 8d	.	8b-/) 8dd	.	8bb-\) 8ddd	.
!	!	!	!	!	!LO:TX:t=P:problem:niewidoczne główki	!
4r	8F\) 8B- 8d	.	8b-'/ 8dd	.	8bb-'>\ 8ddd	.
!	!	!	!	!	!LO:TX:t=P:problem:niewidoczne główki	!
.	8F\J 8B- 8d	.	8b-'/J 8dd	.	8bb-'>\J 8ddd	.
=10	=10	=10	=10	=10	=10	=10
*	*	*	*	*	*^	*
*rep	*	*	*	*	*	*	*
8BBB-/ 8BB-	8r	.	16cc'/LL	.	16aa'\LL 16ccc	16ryy	.
.	.	.	16b-'/	.	16gg'\ 16bb-	16ryy	.
8r	8F\L 8d	.	16a'/	.	16ff'\ 16aa	16ryy	.
.	.	.	16g'/JJ	.	16ee'\JJ 16gg	16ryy	.
4r	8F\ 8B- 8d	.	8f/	.	8dd'\ 8ff	8ryy	.
.	8F\J 8c 8e-X	.	16g/LL	.	16gg/LL	8ee-X\	.
.	.	.	16a/JJ	.	16aa/JJ	.	.
*Xrep	*	*	*	*	*	*	*
*	*	*	*	*	*v	*v	*
!!LO:LB:g=original
=11	=11	=11	=11	=11	=11	=11
8BBB-/ 8BB-	8F\L 8B- 8d	.	8b-/	.	8dd\ 8bb-	.
*	*	*	*	*	*8va	*
8r	8F\J 8d	.	16f/LL 16a	.	16ff/LL 16aa	.
.	.	.	16g/JJ 16b-	.	16gg/JJ 16bb-	.
8BBB-/ 8BB-	8r	.	8a\L 8cc	.	8aa\L 8ccc	.
8r	8F\ 8f	.	16b-\L 16dd	.	16bb-\L 16ddd	.
.	.	.	16cc\JJ 16ee-X	.	16ccc\JJ 16eee-X	.
=12	=12	=12	=12	=12	=12	=12
8BBB-/ 8BB-	8r	.	(>4dd\ 4ff	.	(>4ddd\ 4fff	.
8r	(>8B-\L 8d 8f	.	.	.	.	.
4r	8F\J) 8B- 8d	.	8bb-\)	.	8bbb-\L)	.
*	*	*	*Xtuplet	*	*	*
!	!	!	!	!	!LO:TUP:a:problem:klamra łukowa	!LO:DY:rj
.	8r	.	24ccc\LL	.	24cccc^>\L	ff
.	.	.	24bb-\	.	24bbb-\	.
.	.	.	24aa\JJ	.	24aaa\JJ	.
*	*	*	*tuplet	*	*	*
=13	=13	=13	=13	=13	=13	=13
!	!	!LO:DY:a:rj	!	!	!	!
8DD/L 8D	8F\L 8B- 8d 8f	f	(>8bb-\L	.	(>8bbb-^>\L	.
!LO:TX:t=P:problem:niewidoczne główki	!	!	!	!	!	!
8DD/J 8D	8F\J 8B- 8d 8f	.	8dd\J)	.	8ddd\)	.
!LO:TX:t=P:problem:niewidoczne główki	!LO:TX:t=P:problem:niewidoczne główki	!	!	!	!	!
4DD/ 4D	4F^>\ 4B- 4d 4f	.	8dd^>\ 8ff 8bb-	.	8ddd^>\J	.
*	*	*	*Xtuplet	*	*	*
!	!	!	!LO:TUP:a:problem:klamra łukowa	!	!LO:TUP:a:problem:klamra łukowa	!
.	.	.	24bb-^>\LL	.	24bbb-^>\LL	.
.	.	.	24aa\	.	24aaa\	.
.	.	.	24gg#X\JJ	.	24ggg#X\JJ	.
*	*	*	*tuplet	*	*	*
=14	=14	=14	=14	=14	=14	=14
*rep	*	*	*	*	*	*
8DD/L 8D	8A\L 8d 8f	.	(>8aa\L	.	(>8aaa^>\L	.
!	!LO:TX:t=P:problem:niewidoczne główki	!	!	!	!	!
8DD/J 8D	8A\J 8d 8f	.	8dd\)	.	8ddd\)	.
!	!LO:TX:t=P:problem:niewidoczne główki	!	!	!	!	!
4DD/ 4D	4A^>\ 4d 4f	.	8dd^>\J 8ff 8aa	.	8ddd^>\J	.
.	.	.	(>16dd\LL	.	(>16ddd\LL	.
.	.	.	16ff\JJ	.	16fff\JJ	.
!	!LO:CL:ed	!	!	!	!	!
*Xrep	*clefG2	*	*	*	*	*
!!LO:LB:g=original
=15	=15	=15	=15	=15	=15	=15
*	*^	*	*	*	*	*
!	!	!	!	!LO:TX:t=P:problem:brak zakończenia łuku	!	!LO:TX:t=P:problem:brak zakończenia łuku	!
4AAA/ 4AA	(>8d/L 8f	4A\	.	8aa^>\L)	.	8aaa^>\L)	.
.	8a/J)	.	.	16gg\L	.	16ggg\L	.
.	.	.	.	16ff\JJ	.	16fff\JJ	.
4AA\ 4A	(>8g/L	4c#X\ 4en	.	8een\L 8gg	.	8eeen\L	.
.	8a/J)	.	.	16ff\L 16aa	.	16fff\L	.
.	.	.	.	16ee\JJ 16gg	.	16eee\JJ	.
*	*v	*v	*	*	*	*	*
=16	=16	=16	=16	=16	=16	=16
(<8DD/L 8D	(<8d/L 8f	.	4dd\ 4ff	.	(>[>4ddd\	.
(<8CC#X/) 8C#X	8c#X/)	.	.	.	.	.
*	*	*	*	*	*X8va	*
8CCn'</) 8Cn	8cn'/	.	8r	.	8dd\L]	.
8BBBn'</J 8BBn	8Bn'/J	.	16e-X/LL	.	16ee-X\L	.
.	.	.	16en/JJ	.	16een\JJ	.
=17||	=17||	=17||	=17||	=17||	=17||	=17||
8BBB-X/ 8BB-	8B-X/	.	8f/L	.	8ff'\L)	p
*	*clefF4	*	*	*	*	*
8r@	8F\ 8B- 8d	.	16f/L	.	16ff\L	.
!	!	!	!LO:TX:a:t=a=B.	!	!	!
.	.	.	16g/JJ	.	16gg\JJ	.
8FF/	8r	.	8a/L	.	8aa'\L	.
8r	8F\ 8A 8c	.	(<16a/L	.	(>16aa\L	.
.	.	.	16cc/JJ)	.	16ccc\JJ) 16aa	.
=18	=18	=18	=18	=18	=18	=18
*rep	*rep	*	*	*	*	*
8BB-/	8r	.	8f/L	.	8ff'>\L	.
8r	8F\ 8B- 8d	.	16f/L	.	16ff\L	.
.	.	.	16g/JJ	.	16gg\JJ	.
8FF/	8r	.	8a/	.	8aa\L	.
8r	8F\ 8A 8c	.	(<16a/LL	.	(>16aa\L	.
.	.	.	16bn/JJ	.	16bbn\JJ	.
*Xrep	*Xrep	*	*	*	*	*
=19	=19	=19	=19	=19	=19	=19
8GG/	8r	.	8cc'\)	.	8ccc'\L)	.
8r	8E\ 8G 8c	.	16g/LL	.	16gg\L	.
.	.	.	16cc/JJ	.	16ccc\JJ	.
8GG/	8r	.	8ee\L	.	8eee\L	.
!	!	!	!LO:TUP:a:problem:klamra łukowa	!	!LO:TUP:a:problem:klamra łukowa	!
8r	8G\ 8Bn 8f	.	24dd\L	.	24ddd\L	.
.	.	.	24ee\	.	24eee\	.
.	.	.	24dd\JJ	.	24ddd\JJ	.
=20	=20	=20	=20	=20	=20	=20
8C/	8r	.	4.cc\	.	4.ccc\	.
8r	8G'\L 8c 8e	.	.	.	.	.
8CC/ 8C	8c'\J	.	.	.	.	.
!	!	!	!	!	!	!LO:DY:rj
8r	8r	.	16cc/LL	.	16ccc\LL	f
.	.	.	16a/JJ	.	16aa\JJ	.
=21	=21	=21	=21	=21	=21	=21
!	!	!	!	!	!LO:TX:t=P:problem:all\left:global	!
!	!	!LO:DY:rj	!	!	!LO:TX:a:t=X=:color=red	!
8FFF/L 8FF	8F\L 8A 8c	ff	8f^</ 8a 8cc 8ff	.	8ff^\L 8aa 8ccc 8fff	.
8BBB-/ 8BB-	8F\ 8B-	.	(>16cc\LL 16ee	.	(>16ccc\L 16eee	.
.	.	.	16b-\JJ 16dd	.	16bb-\JJ 16ddd	.
8FFF/J 8FF	8F\J 8A 8c	.	8a/) 8cc	.	8aa\L) 8ccc	.
8r	8r	.	16a/LL	.	16aa\L	.
.	.	.	16cc/JJ	.	16ccc\JJ	.
!!LO:LB:g=original
=22	=22	=22	=22	=22	=22	=22
*rep	*rep	*	*	*	*	*
8FFF/L 8FF	8F\L 8A 8c	.	8f/ 8a 8cc	.	8ff^>\L 8aa 8ccc 8fff	.
8BBB-/ 8BB-	8F\ 8B-	.	16cc\LL 16ee	.	(>16ccc\L 16eee	.
.	.	.	16b-\JJ 16dd	.	16bb-\JJ 16ddd	.
8FFF/J 8FF	8F\J 8A 8c	.	8a\L 8cc	.	8aa\L) 8ccc	.
8r	8r	.	16g\L 16b-	.	16gg\L 16bb-	.
.	.	.	16a\JJ 16cc	.	16aa\JJ 16ccc	.
*Xrep	*Xrep	*	*	*	*	*
=23	=23	=23	=23	=23	=23	=23
!	!	!	!	!	!LO:TX:t=P:problem:all\right:global	!
8BBB-/L 8BB-	8B-^>\L	.	(>8b-^>\L 8dd	.	(>8bb-^>\L 8ddd	.
!	!LO:TUP:a	!	!	!	!	!
*Xtuplet	*	*	*	*	*	*
!	!	!	!	!	!LO:TX:t=P:problem:all\left:global	!
(<24GG/L	(>24G^>\L	.	16a\L 16cc	.	16aa\L 16ccc	.
24AA/	24A\	.	.	.	.	.
.	.	.	16g\JJ 16b-	.	16gg\JJ 16bb-	.
24BB-/JJ	24B-\JJ	.	.	.	.	.
*tuplet	*	*	*	*	*	*
8C/L)	8c\L)	.	8f/L) 8a 8cc	.	8ff'\L) 8aa	.
8CC/J 8C	8G\J 8B- 8c	.	8e/J'< 8g 8b- 8cc	.	8ee'\J 8gg	.
=24	=24	=24	=24	=24	=24	=24
!	!	!	!	!	!LO:TX:t=P:problem:all\right:global	!
(<4FF/	4A\ 4c	.	4cc 4b- 4f/	.	(>4ff\	.
!	!	!LO:DY:rj	!	!	!	!
8FFF/) 8FF	8C\ 8F 8A 8c	sf	8f/ 8a 8cc	.	8ff\) 8aa 8ccc 8ddd	sf
8r	8r	.	16f/LL	5	16ff\LL	p
.	.	.	16g/JJ	.	16gg\JJ	.
=25||	=25||	=25||	=25||	=25||	=25||	=25||
8DD/L	8r	.	(<16b-^</LL	.	(16bb-^\LL	.
.	.	.	16a/	.	16aa\	.
8D/	8F\L 8A 8d	.	16g#X/	.	16gg#X\	.
.	.	.	16a/JJ	.	16aa\JJ	.
8D/	8F\ 8A 8d	.	8a/L	.	16ff\LL 16fff	.
.	.	.	.	.	16eee\	.
8D/J	8G\J 8A 8e	.	16dd/L	.	16ddd\	.
.	.	.	16cc#X/JJ)	.	16ccc#X\JJ)	.
!!LO:PB:g=original
=26	=26	=26	=26	=26	=26	=26
8DD/L	8r	.	(>8dd\L	.	(>8ddd\L	.
8D/	8F\L 8A 8d	.	8a\)	.	8aa\)	.
!	!LO:TX:t=P:problem:niewidoczne główki	!	!	!	!	!
8D/	8F\ 8A 8d	.	8a\J	.	8aa'\J	.
8D/J	8A\J 8d	.	16g/LL	.	(>16ee\LL 16gg	.
.	.	.	16a/JJ	.	16ff\JJ 16aa	.
=27	=27	=27	=27	=27	=27	=27
*rep	*	*	*	*	*	*
8DD/L	8r	.	8b-/L	.	8gg\L) 8bb-	.
8D/	8G\L 8B- 8d	.	8b-/J	.	8gg'>\J 8bb-	.
8D/	8G\ 8B- 8c#X	.	8g/L	.	(>8ee^>\L 8gg	.
8D/J	8G\J 8A 8c#	.	16a/L	.	16ff\L 16aa	.
.	.	.	16g/JJ	.	16ee\JJ) 16gg	.
*Xrep	*	*	*	*	*	*
=28	=28	=28	=28	=28	=28	=28
*rep	*	*	*	*	*	*
8DD/L	8r	.	(<8f/L	.	(>8dd\L 8ff	.
8D/	8F\L 8A 8d	.	8dd/	.	8aa\J 8ddd	.
8D/	8F\ 8A 8d	.	8a/J)	.	8ff'>\) 8aa	.
8D/J	8F\J 8A 8d	.	16a/LL	.	16aa\LL 16ff	.
.	.	.	16b-/JJ	.	16bb-\JJ	.
*Xrep	*	*	*	*	*	*
=29	=29	=29	=29	=29	=29	=29
8AAA/L	8r	.	(>16dd^>\LL	.	(>16ddd^>\LL	.
.	.	.	16cc\	.	16ccc\	.
!	!LO:TX:t=P:problem:all\left:global	!	!	!	!	!
8CC/ 8AA	8F\L 8c 8f	.	16bn\	.	16bbn\	.
.	.	.	16cc\JJ	.	16ccc\JJ	.
!	!LO:TX:t=P:problem:all\right:global	!	!	!	!LO:TX:t=P:problem:all\left:global	!
8AAA/	8F\ 8A 8c	.	16a\LL	.	16aa\LL 16aaa	.
.	.	.	16ff\	.	16fff\	.
8GGG/J 8GG	8F\J 8A 8c	.	16cc\	.	16ccc\	.
.	.	.	16a\JJ)	.	16aa\JJ)	.
=30	=30	=30	=30	=30	=30	=30
!	!	!	!	!	!LO:TX:t=P:problem:all\right	!
(<4BBB-/ 4BB-	8r	.	8a'</L	.	8aa'>\L	.
.	8F\ 8G 8d	.	8g'</	.	8gg'>\	.
4BBBn/ 4BBn	8r	.	(<8g^</	.	(>8gg^>\	.
.	8F\ 8G 8d	.	16f/L	.	16ff\L	.
.	.	.	16g/JJ	.	16gg\JJ	.
!!LO:LB:g=original
=31	=31	=31	=31	=31	=31	=31
!	!	!	!LO:TX:t=P:problem:brak zakończenia łuku	!	!LO:TX:t=P:problem:brak zakończenia łuku	!
4CC/ 4C	8r	.	8a/L)	.	8aa\L)	.
.	8G\ 8c	.	16g/L	.	16gg\L	.
.	.	.	16f/JJ	.	16ff\JJ	.
8DD'/L) 8D	8r	.	8f/L	.	8ffT>\L	.
8GG'/J	8G\ 8Bn	.	16e/L	.	16ee\L	.
.	.	.	16f/JJ	.	16ff\JJ	.
=32	=32	=32	=32	=32	=32	=32
8C/	8G\ 8c	.	16a/LL	.	16aa\LL	.
.	.	.	16g/	.	16gg\	.
8r	8r	.	16a/	.	16aa\	.
.	.	.	16g/JJ	.	16gg\JJ	.
4r	4r	.	4r	.	16ff\LL	.
.	.	.	.	.	16ee\	.
.	.	.	.	.	16dd\	.
.	.	.	.	.	16cc\JJ	.
=33	=33	=33	=33	=33	=33	=33
(<4C/	8r	.	8f/	.	8ff'\	.
.	8F\ 8A 8e-X	.	(<16f/LL	.	(>16ff\LL	.
.	.	.	16g/JJ)	.	16gg\JJ	.
4FF/	8r	.	8a'/L	.	8aa'\L)	.
.	8F\ 8A 8e-	.	(<16a/L	.	(16aa\L	.
.	.	.	16cc/JJ)	.	16ccc\JJ)	.
=34	=34	=34	=34	=34	=34	=34
4C/	8r	.	8f/L	.	8ff'\L	.
.	8F\ 8A 8e-X	.	16f/L	.	(>16ff\L	.
.	.	.	16g/JJ	.	16gg\JJ)	.
8FF/L	8r	.	8a/L	.	8aa'\L	.
!	!LO:TX:t=P:problem:all\left:global	!	!	!	!	!
8FF#X/J	8A\ 8c 8e-	.	16a/L	.	(>16aa\L	.
.	.	.	16bn/JJ	.	16bbn\JJ)	.
=35	=35	=35	=35	=35	=35	=35
8GG/)	8r	.	8cc'\	.	8ccc\L	.
!	!LO:TX:t=P:problem:all\right:global	!	!	!	!	!
8r	(>16G\LL 16en	.	(>16cc'\LL	.	(>16ccc\L	.
.	16f\JJ	.	16dd'\JJ	.	16ddd\JJ	.
8GGG/ 8GG	8g\L)	.	8ee'\)	.	8eee\L)	.
!	!	!	!LO:TUP:a:problem:klamra łukowa	!	!LO:TUP:a:problem:klamra łukowa	!
8r	8G'\J 8Bn 8f	.	24dd\LL	.	24ddd\L	.
.	.	.	24ee\	.	24eee\	.
.	.	.	24dd\JJ	.	24ddd\JJ	.
!!LO:LB:g=original
=36	=36	=36	=36	=36	=36	=36
4CC/	8r	.	4.cc\ 4.ee	.	4.ccc\	.
!	!LO:TX:t=P:problem:all\left:global	!	!	!	!	!
.	8G\L 8c 8e	.	.	.	.	.
8C/	8G\J 8c 8e	.	.	.	.	.
!	!	!	!	!	!	!LO:DY:rj
8r	8r	.	16a/LL	.	16aa\LL	ff
.	.	.	16cc/JJ	.	16ccc\JJ	.
=37	=37	=37	=37	=37	=37	=37
!	!	!	!	!	!LO:TX:t=P:problem:all\left:global	!
!	!LO:TX:t=P:problem:all\right:global	!LO:DY:rj	!LO:TX:b:t=X = Z:color=red	!	!LO:TX:a:t=X=:color=red	!
8FFF/L 8FF	8F\L 8A 8c	ff	8f^</ 8a 8cc 8ff	.	8ff^\L 8aa 8ccc 8fff	.
8BBB-/ 8BB-	8F\ 8B-	.	(>16cc\LL 16ee	.	(>16ccc\L 16eee	.
.	.	.	16b-\JJ 16dd	.	16bb-\JJ 16ddd	.
8FFF/J 8FF	8F\J 8A 8c	.	8a/) 8cc	.	8aa\L) 8ccc	.
8r	8r	.	16a/LL	.	16aa\L	.
.	.	.	16cc/JJ	.	16ccc\JJ	.
!!LO:LB:g=original
=38	=38	=38	=38	=38	=38	=38
*rep	*rep	*	*	*	*	*
!	!	!LO:DY:rj	!	!	!	!
8FFF/L 8FF	8F\L 8A 8c	ff y	8f/ 8a 8cc	.	8ff^>\L 8aa 8ccc 8fff	.
8BBB-/ 8BB-	8F\ 8B-	.	16cc\LL 16ee	.	(>16ccc\L 16eee	.
.	.	.	16b-\JJ 16dd	.	16bb-\JJ 16ddd	.
8FFF/J 8FF	8F\J 8A 8c	.	8a\L 8cc	.	8aa\L) 8ccc	.
8r	8r	.	16g\L 16b-	.	16gg\L 16bb-	.
.	.	.	16a\JJ 16cc	.	16aa\JJ 16ccc	.
*Xrep	*Xrep	*	*	*	*	*
=39	=39	=39	=39	=39	=39	=39
!	!	!	!	!	!LO:TX:t=P:problem:all\right:global	!
8BBB-/L 8BB-	8B-^>\L	.	(>8b-^>\L 8dd	.	(>8bb-^>\L 8ddd	.
*Xtuplet	*	*	*	*	*	*
!	!LO:TUP:a	!	!	!	!LO:TX:t=P:problem:all\left:global	!
(<24GG/L	(>24G^>\L	.	16a\L 16cc	.	16aa\L 16ccc	.
24AA/	24A\	.	.	.	.	.
.	.	.	16g\JJ 16b-	.	16gg\JJ 16bb-	.
24BB-/JJ	24B-\JJ	.	.	.	.	.
*tuplet	*	*	*	*	*	*
8C/L)	8c\L)	.	8f/L) 8a 8cc	.	8ff'>\L) 8aa	.
8CC/J 8C	8G\J 8B- 8c	.	8e/J 8g 8b- 8cc	.	8ee'>\J 8gg	.
=40	=40	=40	=40	=40	=40	=40
!	!	!	!	!	!LO:TX:t=P:problem:all\right:global	!
!	!LO:TX:t=P:problem:all\left:global	!	!	!	!LO:TX:b:t==B:color=red	!
4FF/	4A\ 4c	.	4f/ 4b- 4cc	.	4ff\	.
!	!	!LO:DY:rj	!	!	!LO:TX:a:t==Z:color=red	!
8FFF/ 8FF	8C\ 8F 8A 8c	sf	8f/ 8a 8cc	.	8aa\ 8ccc 8fff	sf
==	==	==	==	==	==	==
*-	*-	*-	*-	*-	*-	*-
!!!system-decoration: [(s1,s2)][(s3,s4)]
!!!ENC: Krzysztof Stępień
!!!END: 2021-09-06
!!!EED: Jędrzej Mróz
!!!ESR: 2021-09-16
!!!RDF**kern: > = above
!!!RDF**kern: < = below
!!!RDF**kern: @ = marked note, color=blue
